Numix-Light/24x24/status/user-away-panel.svg

<?xml version="1.0" encoding="UTF-8" standalone="no"?>
<svg
   xmlns:dc="http://purl.org/dc/elements/1.1/"
   xmlns:cc="http://creativecommons.org/ns#"
   xmlns:rdf="http://www.w3.org/1999/02/22-rdf-syntax-ns#"
   xmlns:svg="http://www.w3.org/2000/svg"
   xmlns="http://www.w3.org/2000/svg"
   xmlns:sodipodi="http://sodipodi.sourceforge.net/DTD/sodipodi-0.dtd"
   xmlns:inkscape="http://www.inkscape.org/namespaces/inkscape"
   width="24"
   height="24"
   viewBox="0 0 24 24"
   id="svg3153"
   version="1.1"
   inkscape:version="0.48.5 r10040"
   sodipodi:docname="user-away-panel.svg">
  <metadata
     id="metadata3165">
    <rdf:RDF>
      <cc:Work
         rdf:about="">
        <dc:format>image/svg+xml</dc:format>
        <dc:type
           rdf:resource="http://purl.org/dc/dcmitype/StillImage" />
      </cc:Work>
    </rdf:RDF>
  </metadata>
  <defs
     id="defs3163" />
  <sodipodi:namedview
     pagecolor="#ffffff"
     bordercolor="#666666"
     borderopacity="1"
     objecttolerance="10"
     gridtolerance="10"
     guidetolerance="10"
     inkscape:pageopacity="0"
     inkscape:pageshadow="2"
     inkscape:window-width="1280"
     inkscape:window-height="998"
     id="namedview3161"
     showgrid="false"
     inkscape:zoom="9.8333333"
     inkscape:cx="12"
     inkscape:cy="12"
     inkscape:window-x="0"
     inkscape:window-y="0"
     inkscape:window-maximized="1"
     inkscape:current-layer="svg3153" />
  <path
     inkscape:connector-curvature="0"
     id="path3159"
     d="m 11.398438,4.363281 c -4.964844,0 -9,3.664063 -9,8.183594 0,4.515625 4.035156,8.179687 9,8.179687 2.359374,0 4.507812,-0.832031 6.113281,-2.179687 l 6.488281,0 -4.011719,-3.648437 c 0.25,-0.75 0.410157,-1.53125 0.410157,-2.351563 0,-4.519531 -4.03125,-8.183594 -9,-8.183594 z M 13.199219,8.726562 18,13.089844 l -4.800781,4.363281 0,-3.269531 L 6,14.183594 6,12 l 7.199219,0 z"
     style="fill:#353535;fill-rule:evenodd;fill-opacity:1" />
</svg>

<svg width="24" xmlns="http://www.w3.org/2000/svg" height="24" viewBox="0 0 24 24" xmlns:xlink="http://www.w3.org/1999/xlink">
<g style="fill-rule:evenodd">
<path style="fill:#000;fill-opacity:.302" d="M 11.398438 5.453125 C 6.433594 5.453125 2.398438 9.121094 2.398438 13.636719 C 2.398438 18.152344 6.433594 21.816406 11.398438 21.816406 C 13.757812 21.816406 15.90625 20.988281 17.511719 19.636719 L 24 19.636719 L 19.988281 15.988281 C 20.238281 15.238281 20.398438 14.460938 20.398438 13.636719 C 20.398438 9.121094 16.367188 5.453125 11.398438 5.453125 Z M 13.199219 9.816406 L 18 14.183594 L 13.199219 18.546875 L 13.199219 15.273438 L 6 15.273438 L 6 13.089844 L 13.199219 13.089844 Z "/>
<path style="fill:#353535" d="M 11.398438 4.363281 C 6.433594 4.363281 2.398438 8.027344 2.398438 12.546875 C 2.398438 17.0625 6.433594 20.726562 11.398438 20.726562 C 13.757812 20.726562 15.90625 19.894531 17.511719 18.546875 L 24 18.546875 L 19.988281 14.898438 C 20.238281 14.148438 20.398438 13.367188 20.398438 12.546875 C 20.398438 8.027344 16.367188 4.363281 11.398438 4.363281 Z M 13.199219 8.726562 L 18 13.089844 L 13.199219 17.453125 L 13.199219 14.183594 L 6 14.183594 L 6 12 L 13.199219 12 Z "/>
</g>
</svg>
